!!!COM: Hummel, Johann Nepomuk
!!!CDT: 1778/11/14-1837/10/17
!!!OTL: Prelude in D major, op. 67, no. 5
!!!OPS: 67
!!!ONM: 5
!!!OMD: Allegro con fuoco.
!!!ODT: 1815
!!!AIN: piano
**kern	**kern	**dynam
*staff2	*staff1	*staff1/2
*Ipiano	*Ipiano	*Ipiano
*clefF4	*clefG2	*clefG2
*k[f#c#]	*k[f#c#]	*k[f#c#]
*D:	*D:	*D:
*met(c)	*met(c)	*met(c)
*M4/4	*M4/4	*M4/4
*MM132	*MM132	*MM132
=1-	=1-	=1-
*ped	*	*
!	!	!LO:DY:b=2
1DD: 1D:	16re<	f
!	!	!LO:DY:rj
.	(16A<LL	f
.	16F#<	.
.	16d<JJ	.
.	16A</LL	.
.	16f#\	.
.	16d\	.
.	16a\JJ	.
.	16f#LL	.
.	16dd	.
.	16a	.
.	16ff#JJ	.
.	16ddLL	.
.	16aa	.
.	16ff#	.
.	16dddJJ)	.
=2	=2	=2
*ped	*	*
1CC#: 1C#:	16rc<	.
.	(16A<LL	.
.	16F#<	.
.	16d<JJ	.
.	16A</LL	.
.	16f#\	.
.	16d\	.
.	16a\JJ	.
.	16f#LL	.
.	16dd	.
.	16a	.
.	16ff#JJ	.
.	16ddLL	.
.	16aa	.
.	16ff#	.
.	16dddJJ)	.
=3	=3	=3
*ped	*	*
2BBB: 2BB:	16rc<	.
.	(16A<LL	.
.	16F#<	.
.	16d<JJ	.
.	16B</LL	.
.	16f#\	.
.	16d\	.
.	16bJJ\	.
*ped	*	*
2AAA: 2AA:	16f#LL	.
.	16dd	.
.	16b	.
.	16ff#JJ	.
.	16ddLL	.
.	16bb	.
.	16ff#	.
.	16dddJJ)	.
!!LO:LB:g=z
=4	=4	=4
*ped	*	*
2.GGG#: 2.GG#:	16r	.
.	(16ccc#LL	<
.	16ddd	.
.	16eeeJJ	.
.	16fffnLL	.
.	16ddd	.
.	16bb	.
.	16gg#JJ	[
.	16ffnLL	.
.	16dd	.
.	16b	.
.	16g#JJ	.
4r	16fnLL	.
.	16d	.
.	16B	.
*Xped	*	*
.	16G#JJ)	.
=5	=5	=5
(<4.AA	(>4.A	ff
16BBLL	16BLL	.
16C#JJ	16c#JJ	.
32DLLL	32dLLL	.
32E	32e	.
32F#X	32f#X	.
32Gn	32gn	.
32A	32a	.
32B	32b	.
32c#	32cc#	.
32d>	32dd	.
32e>	32ee	.
32f#>	32ff#	.
32g>	32gg	.
32a>	32aa	.
32b>	32bb	.
32cc#>	32ccc#	.
64dd>L	64dddL	.
64ee>	64eee	.
64ff#>	64fff#	.
64gg>JJJJ	64gggJJJJ	.
=6	=6	=6
*ped	*	*
8aa>`)	8aaa`)	.
8rff>	8rfff	.
*Xped	*	*
4r	4r	.
4r	4r	.
4AAA 4AA	4E< 4G< 4A< 4c#<	p
=7	=7	=7
*ped	*	*
!	!LO:TX:c:i:t=ten.	!
2DD:: 2AA:: 2D::	2E<:: 2G<:: 2A<:: 2c#<::	.
*ped	*	*
!	!LO:TX:c:i:t=ten.	!
4DD:: 4FF#:: 4AA:: 4D::	4F#<: 4A<: 4d<:	.
*Xped	*	*
4r	4r	.
==	==	==
*-	*-	*-
!!!RDF**kern: > = above
!!!RDF**kern: < = below
!!!ENC: Craig Stuart Sapp
!!!EED: 2008/06/14
!!!EED: Craig Stuart Sapp
!!!EEV: 2021/01/08
!!!YEC: Copyright 2008 by Craig Stuart Sapp
!!!YEN: United States of America
